X: 8297
T: Corney Is Coming
R: reel
M: 4/4
K: Dmajor
Addc dfed|=cABG EFGB|Addc defg|afge fdec|
Addc dfed|=cABG EFGB|Addc defa|gecd edd2:|
defg afdB|=cdef ge^ce|defg a3f|gecd edd2|
afdf afdf|gece gefe|defg a3f|gecd edd2:|

